static/images/social/email.svg

<?xml version="1.0" encoding="UTF-8"?>
<svg width="24px" height="24px" viewBox="0 0 24 24" version="1.1" xmlns="http://www.w3.org/2000/svg" xmlns:xlink="http://www.w3.org/1999/xlink">
    <title>arroba</title>
    <g id="页面-1" stroke="none" stroke-width="1" fill="none" fill-rule="evenodd">
        <g id="iPhone-11" transform="translate(-195.000000, -285.000000)" fill-rule="nonzero">
            <g id="arroba" transform="translate(195.000000, 285.000000)">
                <path d="M11.953125,0 C5.36203125,0 0,5.36203125 0,11.953125 C0,18.5442187 5.36203125,24 11.953125,24 C18.5442187,24 24,18.5442187 24,11.953125 C24,5.36203125 18.5442187,0 11.953125,0 Z" id="路径" fill="#000000"></path>
                <path d="M16.96875,15.46875 C16.0184531,15.46875 15.180375,14.9924531 14.6710781,14.2689375 C14.0264063,14.9986406 13.0947187,15.46875 12.046875,15.46875 C10.1084531,15.46875 8.53125,13.8915469 8.53125,11.953125 C8.53125,10.0147031 10.1084531,8.4375 12.046875,8.4375 C12.8413125,8.4375 13.5668438,8.71242188 14.15625,9.15857813 L14.15625,9.140625 C14.15625,8.75198437 14.4707344,8.4375 14.859375,8.4375 C15.2480156,8.4375 15.5625,8.75198437 15.5625,9.140625 C15.5625,10.704375 15.5625,11.0917969 15.5625,12.65625 C15.5625,13.4314688 16.1935312,14.0625 16.96875,14.0625 C17.7439688,14.0625 18.375,13.4314688 18.375,12.65625 C18.375,7.95042187 15.261,5.625 12.046875,5.625 C8.55735938,5.625 5.71875,8.46360938 5.71875,11.953125 C5.71875,15.4426406 8.55735938,18.28125 12.046875,18.28125 C13.453125,18.28125 14.7831563,17.8308281 15.8934844,16.9779844 C16.6351406,16.4118281 17.4844219,17.5294687 16.7504063,18.0930938 C15.3915469,19.1361094 13.7655469,19.6875 12.046875,19.6875 C7.78214063,19.6875 4.3125,16.2178594 4.3125,11.953125 C4.3125,7.68839063 7.78214063,4.21875 12.046875,4.21875 C15.9326719,4.21875 19.78125,7.08445312 19.78125,12.65625 C19.78125,14.2073906 18.5198906,15.46875 16.96875,15.46875 Z" id="路径" fill="#FFFFFF"></path>
                <path d="M12.046875,9.84375 C10.8837187,9.84375 9.9375,10.7899687 9.9375,11.953125 C9.9375,13.1162813 10.8837187,14.0625 12.046875,14.0625 C13.2100313,14.0625 14.15625,13.1162813 14.15625,11.953125 C14.15625,10.7899687 13.2100313,9.84375 12.046875,9.84375 Z" id="路径" fill="#000000"></path>
            </g>
        </g>
    </g>
</svg>

<svg xmlns="http://www.w3.org/2000/svg" width="24" height="24" viewBox="0 0 24 24"><title>email</title><g fill="none" fill-rule="nonzero"><path fill="#444" d="M11.953 0C5.362 0 0 5.362 0 11.953 0 18.544 5.362 24 11.953 24 18.544 24 24 18.544 24 11.953S18.544 0 11.953 0Z"/><path fill="#DEDEDE" d="M16.969 15.469c-.95 0-1.789-.477-2.298-1.2a3.494 3.494 0 0 1-2.624 1.2 3.52 3.52 0 0 1-3.516-3.516 3.52 3.52 0 0 1 3.516-3.515c.794 0 1.52.274 2.11.72v-.017a.703.703 0 1 1 1.405 0v3.515c0 .775.632 1.406 1.407 1.406s1.406-.63 1.406-1.406c0-4.706-3.114-7.031-6.328-7.031a6.335 6.335 0 0 0-6.328 6.328 6.335 6.335 0 0 0 6.328 6.328 6.26 6.26 0 0 0 3.846-1.303c.742-.566 1.591.551.857 1.115a7.659 7.659 0 0 1-4.703 1.595c-4.265 0-7.735-3.47-7.735-7.735 0-4.265 3.47-7.734 7.735-7.734 3.886 0 7.734 2.865 7.734 8.437a2.815 2.815 0 0 1-2.812 2.813Z"/><path fill="#444" d="M12.047 9.844c-1.163 0-2.11.946-2.11 2.11 0 1.162.947 2.108 2.11 2.108 1.163 0 2.11-.946 2.11-2.109s-.947-2.11-2.11-2.11Z"/></g></svg>
